Simply-Red-Circles/scalable/apps/thunar-volman-settings.svg

<svg xmlns="http://www.w3.org/2000/svg" width="48" height="48" viewBox="0 0 12.7 12.7"><path fill="#a02c2c" d="M6.344.073a6.29 6.29 0 0 0-6.29 6.29 6.29 6.29 0 0 0 6.29 6.288 6.29 6.29 0 0 0 6.29-6.289 6.29 6.29 0 0 0-6.29-6.29zm-.018.936a5.407 5.407 0 0 1 5.407 5.407 5.407 5.407 0 0 1-5.407 5.407A5.407 5.407 0 0 1 .92 6.416 5.407 5.407 0 0 1 6.326 1.01zm-2.33 1.275L2.55 3.756h7.6L8.698 2.284H3.996zM2.55 3.891v6.106h7.595V3.891H2.55zm.337.271h6.922v5.565H2.887V4.162zm.377.422V9.3H9.41V4.584H3.264zm3.643.265l.21.508a1.292 1.292 0 0 1 .26.03l.312-.45c.11.038.21.092.31.15l-.13.529a1.303 1.303 0 0 1 .19.174l.515-.178a1.78 1.78 0 0 1 .168.303l-.414.347a1.244 1.244 0 0 1 .033.125c.009.043.014.084.018.127l.517.158a1.757 1.757 0 0 1-.037.344l-.543.037a1.35 1.35 0 0 1-.108.235l.327.436c-.07.092-.141.181-.227.259l-.462-.293c-.07.05-.148.094-.229.13l.005.549a1.834 1.834 0 0 1-.331.067l-.21-.508a1.373 1.373 0 0 1-.26-.03l-.312.45a1.774 1.774 0 0 1-.31-.15l.13-.528a1.328 1.328 0 0 1-.191-.174l-.514.177a1.78 1.78 0 0 1-.166-.296l-.099.207a.76.76 0 0 1 .09.121l.314-.042a1.039 1.039 0 0 1 .061.193l-.277.15a.725.725 0 0 1 .005.076c0 .026-.002.05-.005.075l.277.15a1.029 1.029 0 0 1-.06.192l-.316-.042a.766.766 0 0 1-.089.122l.137.287c-.05.045-.102.088-.16.123l-.23-.222a.72.72 0 0 1-.146.047l-.06.315a1.07 1.07 0 0 1-.198 0l-.061-.315a.749.749 0 0 1-.146-.047l-.23.222a1.024 1.024 0 0 1-.16-.123l.136-.287a.76.76 0 0 1-.089-.122l-.315.042a1.039 1.039 0 0 1-.061-.193l.277-.15a.73.73 0 0 1 0-.15l-.277-.15a1.038 1.038 0 0 1 .061-.193l.315.042a.76.76 0 0 1 .09-.121l-.137-.288a1.01 1.01 0 0 1 .16-.122l.23.221a.754.754 0 0 1 .146-.047l.061-.314a1.07 1.07 0 0 1 .098-.005c.033 0 .067.004.1.005l.06.314a.753.753 0 0 1 .146.047l.23-.22c.058.034.11.077.16.122l-.032.066.405-.339a1.252 1.252 0 0 1-.033-.125 1.253 1.253 0 0 1-.018-.128l-.517-.157a1.78 1.78 0 0 1 .037-.345l.543-.036a1.303 1.303 0 0 1 .108-.235l-.326-.436c.069-.092.14-.181.226-.26l.463.292a1.292 1.292 0 0 1 .228-.128l-.005-.55a1.834 1.834 0 0 1 .164-.04c.056-.012.113-.019.168-.027zm.191 1.021a.773.773 0 0 0-.153.015.773.773 0 0 0 .308 1.516.773.773 0 0 0-.128-1.53.773.773 0 0 0-.027 0zM4.8 7.63a.451.451 0 1 0 0 .902.451.451 0 0 0 0-.902z"/></svg>

<?xml version="1.0" encoding="UTF-8" standalone="no"?>
<svg
   xmlns:dc="http://purl.org/dc/elements/1.1/"
   xmlns:cc="http://creativecommons.org/ns#"
   xmlns:rdf="http://www.w3.org/1999/02/22-rdf-syntax-ns#"
   xmlns:svg="http://www.w3.org/2000/svg"
   xmlns="http://www.w3.org/2000/svg"
   xmlns:sodipodi="http://sodipodi.sourceforge.net/DTD/sodipodi-0.dtd"
   xmlns:inkscape="http://www.inkscape.org/namespaces/inkscape"
   width="48"
   height="48"
   viewBox="0 0 12.7 12.7"
   version="1.1"
   id="svg4"
   sodipodi:docname="thunar-volman-settings.svg"
   inkscape:version="0.92.4 (5da689c313, 2019-01-14)">
  <metadata
     id="metadata10">
    <rdf:RDF>
      <cc:Work
         rdf:about="">
        <dc:format>image/svg+xml</dc:format>
        <dc:type
           rdf:resource="http://purl.org/dc/dcmitype/StillImage" />
        <dc:title></dc:title>
      </cc:Work>
    </rdf:RDF>
  </metadata>
  <defs
     id="defs8" />
  <sodipodi:namedview
     pagecolor="#ffffff"
     bordercolor="#666666"
     borderopacity="1"
     objecttolerance="10"
     gridtolerance="10"
     guidetolerance="10"
     inkscape:pageopacity="0"
     inkscape:pageshadow="2"
     inkscape:window-width="1087"
     inkscape:window-height="480"
     id="namedview6"
     showgrid="false"
     inkscape:zoom="4.9166667"
     inkscape:cx="2.1355932"
     inkscape:cy="24"
     inkscape:window-x="0"
     inkscape:window-y="25"
     inkscape:window-maximized="0"
     inkscape:current-layer="svg4" />
  <path
     d="m 6.344,0.073 a 6.29,6.29 0 0 0 -6.29,6.29 6.29,6.29 0 0 0 6.29,6.288 6.29,6.29 0 0 0 6.29,-6.289 6.29,6.29 0 0 0 -6.29,-6.29 z M 6.326,1.009 A 5.407,5.407 0 0 1 11.733,6.416 5.407,5.407 0 0 1 6.326,11.823 5.407,5.407 0 0 1 0.92,6.416 5.407,5.407 0 0 1 6.326,1.01 Z M 3.996,2.284 2.55,3.756 h 7.6 L 8.698,2.284 Z M 2.55,3.891 v 6.106 h 7.595 V 3.891 Z M 2.887,4.162 H 9.809 V 9.727 H 2.887 Z M 3.264,4.584 V 9.3 H 9.41 V 4.584 Z m 3.643,0.265 0.21,0.508 a 1.292,1.292 0 0 1 0.26,0.03 l 0.312,-0.45 c 0.11,0.038 0.21,0.092 0.31,0.15 L 7.869,5.616 A 1.303,1.303 0 0 1 8.059,5.79 L 8.574,5.612 A 1.78,1.78 0 0 1 8.742,5.915 L 8.328,6.262 A 1.244,1.244 0 0 1 8.361,6.387 C 8.37,6.43 8.375,6.471 8.379,6.514 L 8.896,6.672 A 1.757,1.757 0 0 1 8.859,7.016 L 8.316,7.053 C 8.288,7.135 8.251,7.213 8.208,7.288 L 8.535,7.724 C 8.465,7.816 8.394,7.905 8.308,7.983 L 7.846,7.69 C 7.776,7.74 7.698,7.784 7.617,7.82 L 7.622,8.369 A 1.834,1.834 0 0 1 7.291,8.436 L 7.081,7.928 A 1.373,1.373 0 0 1 6.821,7.898 L 6.509,8.348 A 1.774,1.774 0 0 1 6.199,8.198 L 6.329,7.67 A 1.328,1.328 0 0 1 6.138,7.496 L 5.624,7.673 A 1.78,1.78 0 0 1 5.458,7.377 L 5.359,7.584 a 0.76,0.76 0 0 1 0.09,0.121 L 5.763,7.663 a 1.039,1.039 0 0 1 0.061,0.193 l -0.277,0.15 a 0.725,0.725 0 0 1 0.005,0.076 c 0,0.026 -0.002,0.05 -0.005,0.075 l 0.277,0.15 A 1.029,1.029 0 0 1 5.764,8.499 L 5.448,8.457 A 0.766,0.766 0 0 1 5.359,8.579 L 5.496,8.866 C 5.446,8.911 5.394,8.954 5.336,8.989 L 5.106,8.767 A 0.72,0.72 0 0 1 4.96,8.814 L 4.9,9.129 a 1.07,1.07 0 0 1 -0.198,0 L 4.641,8.814 A 0.749,0.749 0 0 1 4.495,8.767 L 4.265,8.989 A 1.024,1.024 0 0 1 4.105,8.866 L 4.241,8.579 A 0.76,0.76 0 0 1 4.152,8.457 L 3.837,8.499 A 1.039,1.039 0 0 1 3.776,8.306 l 0.277,-0.15 a 0.73,0.73 0 0 1 0,-0.15 L 3.776,7.856 A 1.038,1.038 0 0 1 3.837,7.663 L 4.152,7.705 A 0.76,0.76 0 0 1 4.242,7.584 L 4.105,7.296 a 1.01,1.01 0 0 1 0.16,-0.122 l 0.23,0.221 A 0.754,0.754 0 0 1 4.641,7.348 L 4.702,7.034 A 1.07,1.07 0 0 1 4.8,7.029 c 0.033,0 0.067,0.004 0.1,0.005 l 0.06,0.314 a 0.753,0.753 0 0 1 0.146,0.047 l 0.23,-0.22 c 0.058,0.034 0.11,0.077 0.16,0.122 L 5.464,7.363 5.869,7.024 A 1.252,1.252 0 0 1 5.836,6.899 1.253,1.253 0 0 1 5.818,6.771 L 5.301,6.614 A 1.78,1.78 0 0 1 5.338,6.269 L 5.881,6.233 A 1.303,1.303 0 0 1 5.989,5.998 L 5.663,5.562 C 5.732,5.47 5.803,5.381 5.889,5.302 L 6.352,5.594 A 1.292,1.292 0 0 1 6.58,5.466 L 6.575,4.916 A 1.834,1.834 0 0 1 6.739,4.876 C 6.795,4.864 6.852,4.857 6.907,4.849 Z M 7.098,5.87 a 0.773,0.773 0 0 0 -0.153,0.015 0.77348562,0.77348562 0 0 0 0.308,1.516 0.773,0.773 0 0 0 -0.128,-1.53 0.773,0.773 0 0 0 -0.027,0 z M 4.8,7.63 a 0.451,0.451 0 1 0 0,0.902 0.451,0.451 0 0 0 0,-0.902 z"
     id="path2"
     inkscape:connector-curvature="0"
     style="fill:#a02c2c" />
</svg>
